apps/64/acetoneiso.svg

<svg xmlns="http://www.w3.org/2000/svg" style="isolation:isolate" width="256" height="256"><g filter="url(#a)"><linearGradient id="b" x1=".565" y1="1.072" x2=".567" y2=".005" gradientTransform="matrix(244.648 0 0 228.338 5.676 11.947)" gradientUnits="userSpaceOnUse"><stop offset="2.174%" stop-color="#8c59d9"/><stop offset="100%" stop-color="#8f76e4"/></linearGradient><path d="M165.685 11.947c74.055 0 84.639 10.557 84.639 84.544v59.251c0 73.986-10.584 84.543-84.639 84.543h-75.37c-74.055 0-84.639-10.557-84.639-84.543V96.491c0-73.987 10.584-84.544 84.639-84.544h75.37z" fill="url(#b)"/></g><defs><filter id="a" x="-200%" y="-200%" width="400%" height="400%" filterUnits="objectBoundingBox" color-interpolation-filters="sRGB"><feGaussianBlur xmlns="http://www.w3.org/2000/svg" in="SourceGraphic" stdDeviation="4.294"/><feOffset xmlns="http://www.w3.org/2000/svg" dy="4" result="pf_100_offsetBlur"/><feFlood xmlns="http://www.w3.org/2000/svg" flood-color="#000" flood-opacity=".4"/><feComposite xmlns="http://www.w3.org/2000/svg" in2="pf_100_offsetBlur" operator="in" result="pf_100_dropShadow"/><feBlend xmlns="http://www.w3.org/2000/svg" in="SourceGraphic" in2="pf_100_dropShadow"/></filter></defs><path d="M87.22 11.83h81.549v228.338H87.22V11.83z" fill="#FFF" opacity=".1"/><path d="M5.676 126.116v29.626c0 73.986 10.584 84.543 84.639 84.543h75.37c74.055 0 84.639-10.557 84.639-84.543v-29.626H5.676z" fill="#FFF" opacity=".1"/><path d="M128 57.114c-16.305 0-29.516 13.211-29.516 29.516 0 1.245.107 2.473.254 3.677a35.232 35.232 0 0 0-6.157 19.935c0 .177.018.355.024.531a35.325 35.325 0 0 0-20.767 11.588c-11.6 1.5-20.578 11.288-20.578 23.301 0 11.994 8.984 21.799 20.59 23.298a35.938 35.938 0 0 0 3.323 3.323c-.118.963-.301 1.901-.301 2.894 0 13.028 10.561 23.612 23.612 23.612 13.028 0 23.613-10.584 23.613-23.612 0-.998-.183-1.942-.301-2.905a35.874 35.874 0 0 0 6.204-7.054 35.57 35.57 0 0 0 6.204 7.065c-.118.963-.301 1.901-.301 2.894 0 13.028 10.56 23.612 23.612 23.612 13.028 0 23.612-10.584 23.612-23.612 0-.998-.183-1.942-.301-2.905a35.7 35.7 0 0 0 3.312-3.312c11.594-1.499 20.602-11.304 20.602-23.298 0-12.013-9.003-21.801-20.59-23.301a35.326 35.326 0 0 0-20.755-11.588c0-.176.023-.354.023-.531a35.234 35.234 0 0 0-6.157-19.935c.148-1.204.254-2.432.254-3.677 0-16.305-13.211-29.516-29.515-29.516z" opacity=".1"/><path d="M122.097 169.274c0 13.028-10.585 23.612-23.613 23.612-13.051 0-23.612-10.584-23.612-23.612 0-13.052 10.561-23.612 23.612-23.612 13.028 0 23.613 10.56 23.613 23.612z" fill="#CCC"/><path d="M133.903 139.757c0 19.558-15.868 35.42-35.419 35.42-19.574 0-35.418-15.869-35.418-35.42 0-19.574 15.844-35.418 35.418-35.418 19.557 0 35.419 15.844 35.419 35.418z" fill="#3B3B3B"/><path d="M133.903 169.274c0 13.028 10.56 23.612 23.612 23.612 13.028 0 23.612-10.584 23.612-23.612 0-13.052-10.584-23.612-23.612-23.612-13.052 0-23.612 10.56-23.612 23.612z" fill="#CCC"/><path d="M192.934 139.757c0 19.558-15.868 35.42-35.419 35.42-19.575 0-35.418-15.869-35.418-35.42 0-19.574 15.843-35.418 35.418-35.418 19.557 0 35.419 15.844 35.419 35.418z" fill="#3B3B3B"/><path d="M163.418 104.339c0 19.557-15.867 35.418-35.418 35.418-19.557 0-35.419-15.867-35.419-35.418 0-19.557 15.868-35.418 35.419-35.418 19.557 0 35.418 15.868 35.418 35.418z" fill="#4D4D4D"/><path d="M98.484 139.757c0 13.03-10.584 23.614-23.612 23.614-13.052 0-23.612-10.584-23.612-23.614 0-13.05 10.56-23.612 23.612-23.612 13.028 0 23.612 10.562 23.612 23.612zm59.031 0c0 13.03 10.561 23.614 23.612 23.614 13.028 0 23.613-10.584 23.613-23.614 0-13.05-10.585-23.612-23.613-23.612-13.051 0-23.612 10.562-23.612 23.612z" fill="#ECECEC"/><path d="M157.515 80.727c0 16.304-13.211 29.515-29.515 29.515-16.305 0-29.516-13.211-29.516-29.515 0-16.305 13.211-29.516 29.516-29.516 16.304 0 29.515 13.211 29.515 29.516z" fill="#7839B7"/><g opacity=".4"><linearGradient id="c" x1=".517" x2=".517" y2="1" gradientTransform="matrix(244.65 0 0 228.34 5.68 11.95)" gradientUnits="userSpaceOnUse"><stop offset="0%" stop-color="#fff"/><stop offset="12.5%" stop-opacity=".098" stop-color="#fff"/><stop offset="92.5%" stop-opacity=".098"/><stop offset="100%" stop-opacity=".498"/></linearGradient><path d="M165.068 11.951c4.328-.01 8.656.04 12.984.138 3.875.078 7.75.226 11.626.452 3.453.196 6.905.481 10.348.854 3.06.335 6.118.786 9.148 1.346a80.47 80.47 0 0 1 8.046 1.916 53.64 53.64 0 0 1 7.023 2.584 40.413 40.413 0 0 1 6.06 3.35 35.176 35.176 0 0 1 5.134 4.215 35.072 35.072 0 0 1 4.22 5.119 41.692 41.692 0 0 1 3.363 6.042 55.982 55.982 0 0 1 2.597 7.005 80.224 80.224 0 0 1 1.918 8.037 124.43 124.43 0 0 1 1.348 9.127c.374 3.439.659 6.878.856 10.326.226 3.861.373 7.732.462 11.593.088 4.323.138 8.646.128 12.96v58.21c.01 4.324-.04 8.637-.128 12.96a325.177 325.177 0 0 1-.462 11.593 200.984 200.984 0 0 1-.856 10.326 124.691 124.691 0 0 1-1.348 9.137 80.687 80.687 0 0 1-1.918 8.027 55.414 55.414 0 0 1-2.597 7.005 41.18 41.18 0 0 1-3.364 6.042 34.559 34.559 0 0 1-4.22 5.119 35.177 35.177 0 0 1-5.134 4.215 40.412 40.412 0 0 1-6.059 3.35 55.138 55.138 0 0 1-7.023 2.594 77.806 77.806 0 0 1-8.046 1.906 120 120 0 0 1-9.148 1.346c-3.443.373-6.895.658-10.348.854-3.875.226-7.75.374-11.626.462-4.328.088-8.656.138-12.984.128H90.942c-4.328.01-8.656-.04-12.984-.128a328.387 328.387 0 0 1-11.626-.462 203.003 203.003 0 0 1-10.348-.854 120 120 0 0 1-9.148-1.346 77.806 77.806 0 0 1-8.046-1.906 55.139 55.139 0 0 1-7.023-2.594 40.413 40.413 0 0 1-6.06-3.35 35.176 35.176 0 0 1-5.134-4.215 34.56 34.56 0 0 1-4.22-5.119 41.183 41.183 0 0 1-3.363-6.042 55.415 55.415 0 0 1-2.597-7.005 80.682 80.682 0 0 1-1.918-8.027 124.688 124.688 0 0 1-1.348-9.137 200.993 200.993 0 0 1-.856-10.326 325.212 325.212 0 0 1-.462-11.593 569.197 569.197 0 0 1-.128-12.96v-58.21c-.01-4.314.04-8.637.128-12.96.089-3.86.236-7.732.462-11.593.197-3.448.482-6.887.856-10.326.335-3.055.787-6.101 1.348-9.127a80.219 80.219 0 0 1 1.918-8.037 55.983 55.983 0 0 1 2.597-7.005 41.695 41.695 0 0 1 3.364-6.042 35.072 35.072 0 0 1 4.22-5.119 35.176 35.176 0 0 1 5.134-4.215 40.413 40.413 0 0 1 6.059-3.35 53.64 53.64 0 0 1 7.023-2.584 80.47 80.47 0 0 1 8.046-1.916 125.11 125.11 0 0 1 9.148-1.346c3.443-.373 6.895-.658 10.348-.854 3.875-.226 7.75-.374 11.626-.452 4.328-.098 8.656-.148 12.984-.138h74.126zm.01 4.009c4.298-.01 8.597.039 12.895.127 3.827.089 7.653.236 11.48.452 3.383.197 6.766.472 10.13.845 2.971.315 5.932.747 8.863 1.297a75.943 75.943 0 0 1 7.653 1.818 50.493 50.493 0 0 1 6.501 2.397 37.038 37.038 0 0 1 5.47 3.026 30.383 30.383 0 0 1 4.524 3.724 31.05 31.05 0 0 1 3.738 4.519 37.271 37.271 0 0 1 3.03 5.443 51.46 51.46 0 0 1 2.4 6.494 75.563 75.563 0 0 1 1.829 7.634c.54 2.928.974 5.875 1.298 8.842.374 3.36.65 6.73.846 10.11.217 3.822.374 7.634.453 11.456.088 4.293.137 8.577.137 12.87v58.212c0 4.293-.049 8.577-.137 12.87a317.503 317.503 0 0 1-.453 11.456c-.196 3.38-.472 6.75-.846 10.12a121.689 121.689 0 0 1-1.298 8.832 75.562 75.562 0 0 1-1.83 7.634 50.902 50.902 0 0 1-2.4 6.494 36.767 36.767 0 0 1-3.03 5.443 30.615 30.615 0 0 1-3.737 4.53 30.938 30.938 0 0 1-4.525 3.713 37.038 37.038 0 0 1-5.469 3.026 49.07 49.07 0 0 1-6.501 2.397 75.942 75.942 0 0 1-7.653 1.818c-2.931.55-5.892.982-8.863 1.306-3.364.364-6.747.649-10.13.836-3.827.216-7.653.373-11.48.452-4.298.098-8.597.137-12.895.137H90.932c-4.298 0-8.597-.04-12.895-.137a320.093 320.093 0 0 1-11.48-.452 193.696 193.696 0 0 1-10.13-.836 116.71 116.71 0 0 1-8.863-1.306 75.942 75.942 0 0 1-7.653-1.818 49.07 49.07 0 0 1-6.501-2.397 37.038 37.038 0 0 1-5.47-3.026 30.938 30.938 0 0 1-4.524-3.714 30.615 30.615 0 0 1-3.738-4.529 36.766 36.766 0 0 1-3.03-5.443 50.903 50.903 0 0 1-2.4-6.494 75.567 75.567 0 0 1-1.829-7.634 121.69 121.69 0 0 1-1.298-8.832c-.374-3.37-.65-6.74-.846-10.12a317.535 317.535 0 0 1-.453-11.456 623.851 623.851 0 0 1-.137-12.87V97.014c0-4.293.049-8.577.137-12.87.079-3.822.236-7.634.453-11.456.197-3.38.472-6.75.846-10.11.324-2.967.757-5.914 1.298-8.842a75.568 75.568 0 0 1 1.83-7.634 51.46 51.46 0 0 1 2.4-6.494 37.27 37.27 0 0 1 3.03-5.443 31.05 31.05 0 0 1 3.737-4.52 30.384 30.384 0 0 1 4.525-3.723 37.039 37.039 0 0 1 5.469-3.026 50.494 50.494 0 0 1 6.501-2.397 75.943 75.943 0 0 1 7.653-1.818c2.931-.55 5.892-.982 8.863-1.297 3.364-.373 6.747-.648 10.13-.845a344.71 344.71 0 0 1 11.48-.452c4.298-.088 8.597-.137 12.895-.127H165.078z" fill-rule="evenodd" fill="url(#c)"/></g></svg>

<?xml version="1.0" standalone="no"?><!-- Generator: Gravit.io --><svg xmlns="http://www.w3.org/2000/svg" xmlns:xlink="http://www.w3.org/1999/xlink" style="isolation:isolate" viewBox="0 0 256 256" width="256" height="256"><defs><filter id="qCHjFJVplUT3XfbwtPvEAWI5vc1bBqTm" x="-200%" y="-200%" width="400%" height="400%" filterUnits="objectBoundingBox" color-interpolation-filters="sRGB"><feGaussianBlur xmlns="http://www.w3.org/2000/svg" in="SourceGraphic" stdDeviation="4.293609062839028"/><feOffset xmlns="http://www.w3.org/2000/svg" dx="0" dy="4" result="pf_100_offsetBlur"/><feFlood xmlns="http://www.w3.org/2000/svg" flood-color="#000000" flood-opacity="0.4"/><feComposite xmlns="http://www.w3.org/2000/svg" in2="pf_100_offsetBlur" operator="in" result="pf_100_dropShadow"/><feBlend xmlns="http://www.w3.org/2000/svg" in="SourceGraphic" in2="pf_100_dropShadow" mode="normal"/></filter></defs><g filter="url(#qCHjFJVplUT3XfbwtPvEAWI5vc1bBqTm)"><linearGradient id="_lgradient_43" x1="0.5666666542561158" y1="1.0714286580680756" x2="0.566666654256116" y2="-0.7417031369901192" gradientTransform="matrix(244.648,0,0,228.338,5.619,11.952)" gradientUnits="userSpaceOnUse"><stop offset="0%" stop-opacity="1" style="stop-color:rgb(38,87,235)"/><stop offset="100%" stop-opacity="1" style="stop-color:rgb(222,97,97)"/></linearGradient><path d=" M 165.628 11.952 C 239.684 11.952 250.267 22.509 250.267 96.495 L 250.267 155.746 C 250.267 229.733 239.684 240.29 165.628 240.29 L 90.259 240.29 C 16.203 240.29 5.619 229.733 5.619 155.746 L 5.619 96.495 C 5.619 22.509 16.203 11.952 90.259 11.952 L 165.628 11.952 Z " id="shape" fill="url(#_lgradient_43)"/></g><g opacity="0.4"><linearGradient id="_lgradient_44" x1="0.5166666666666668" y1="0" x2="0.5166666666666666" y2="1.0000000000000002" gradientTransform="matrix(244.65,0,0,228.34,5.68,11.95)" gradientUnits="userSpaceOnUse"><stop offset="0%" stop-opacity="1" style="stop-color:rgb(255,255,255)"/><stop offset="12.5%" stop-opacity="0.09803922" style="stop-color:rgb(255,255,255)"/><stop offset="92.500001%" stop-opacity="0.09803922" style="stop-color:rgb(0,0,0)"/><stop offset="100%" stop-opacity="0.49803922" style="stop-color:rgb(0,0,0)"/></linearGradient><path d=" M 165.068 11.951 C 169.396 11.941 173.724 11.991 178.052 12.089 C 181.927 12.167 185.803 12.315 189.678 12.541 C 193.131 12.737 196.583 13.022 200.026 13.395 C 203.085 13.73 206.144 14.181 209.174 14.741 C 211.889 15.243 214.574 15.881 217.22 16.657 C 219.62 17.355 221.971 18.219 224.243 19.241 C 226.358 20.184 228.384 21.304 230.302 22.591 C 232.142 23.829 233.863 25.244 235.437 26.806 C 237.001 28.378 238.417 30.088 239.656 31.925 C 240.945 33.841 242.066 35.865 243.02 37.967 C 244.043 40.247 244.909 42.585 245.617 44.972 C 246.394 47.615 247.034 50.297 247.535 53.009 C 248.096 56.035 248.548 59.081 248.883 62.136 C 249.257 65.575 249.542 69.014 249.739 72.462 C 249.965 76.323 250.112 80.194 250.201 84.055 C 250.289 88.378 250.339 92.701 250.329 97.014 L 250.329 155.226 C 250.339 159.549 250.289 163.862 250.201 168.185 C 250.112 172.056 249.965 175.917 249.739 179.778 C 249.542 183.226 249.257 186.675 248.883 190.104 C 248.548 193.159 248.096 196.215 247.535 199.241 C 247.034 201.943 246.394 204.625 245.617 207.268 C 244.909 209.655 244.043 212.003 243.02 214.273 C 242.066 216.385 240.945 218.399 239.656 220.315 C 238.417 222.152 237.001 223.872 235.437 225.434 C 233.863 226.996 232.142 228.411 230.302 229.649 C 228.384 230.936 226.358 232.056 224.243 232.999 C 221.971 234.021 219.62 234.885 217.22 235.593 C 214.574 236.369 211.889 237.007 209.174 237.499 C 206.144 238.068 203.085 238.51 200.026 238.845 C 196.583 239.218 193.131 239.503 189.678 239.699 C 185.803 239.925 181.927 240.073 178.052 240.161 C 173.724 240.249 169.396 240.299 165.068 240.289 L 90.942 240.289 C 86.614 240.299 82.286 240.249 77.958 240.161 C 74.083 240.073 70.207 239.925 66.332 239.699 C 62.879 239.503 59.427 239.218 55.984 238.845 C 52.925 238.51 49.866 238.068 46.836 237.499 C 44.121 237.007 41.436 236.369 38.79 235.593 C 36.39 234.885 34.039 234.021 31.767 232.999 C 29.652 232.056 27.626 230.936 25.708 229.649 C 23.868 228.411 22.147 226.996 20.573 225.434 C 19.009 223.872 17.593 222.152 16.354 220.315 C 15.065 218.399 13.944 216.385 12.99 214.273 C 11.967 212.003 11.101 209.655 10.393 207.268 C 9.616 204.625 8.976 201.943 8.475 199.241 C 7.914 196.215 7.462 193.159 7.127 190.104 C 6.753 186.675 6.468 183.226 6.271 179.778 C 6.045 175.917 5.898 172.056 5.809 168.185 C 5.721 163.862 5.671 159.549 5.681 155.226 L 5.681 97.014 C 5.671 92.701 5.721 88.378 5.809 84.055 C 5.898 80.194 6.045 76.323 6.271 72.462 C 6.468 69.014 6.753 65.575 7.127 62.136 C 7.462 59.081 7.914 56.035 8.475 53.009 C 8.976 50.297 9.616 47.615 10.393 44.972 C 11.101 42.585 11.967 40.247 12.99 37.967 C 13.944 35.865 15.065 33.841 16.354 31.925 C 17.593 30.088 19.009 28.378 20.573 26.806 C 22.147 25.244 23.868 23.829 25.708 22.591 C 27.626 21.304 29.652 20.184 31.767 19.241 C 34.039 18.219 36.39 17.355 38.79 16.657 C 41.436 15.881 44.121 15.243 46.836 14.741 C 49.866 14.181 52.925 13.73 55.984 13.395 C 59.427 13.022 62.879 12.737 66.332 12.541 C 70.207 12.315 74.083 12.167 77.958 12.089 C 82.286 11.991 86.614 11.941 90.942 11.951 L 165.068 11.951 Z  M 165.078 15.96 C 169.376 15.95 173.675 15.999 177.973 16.087 C 181.8 16.176 185.626 16.323 189.452 16.539 C 192.836 16.736 196.219 17.011 199.583 17.384 C 202.554 17.699 205.515 18.131 208.446 18.681 C 211.023 19.153 213.58 19.762 216.099 20.499 C 218.322 21.147 220.495 21.953 222.6 22.896 C 224.509 23.751 226.338 24.763 228.069 25.922 C 229.692 27.013 231.207 28.26 232.594 29.646 C 233.981 31.031 235.23 32.544 236.332 34.165 C 237.492 35.894 238.506 37.712 239.361 39.608 C 240.306 41.72 241.112 43.892 241.761 46.102 C 242.509 48.617 243.109 51.162 243.591 53.736 C 244.132 56.664 244.565 59.611 244.889 62.578 C 245.263 65.938 245.539 69.308 245.735 72.688 C 245.952 76.51 246.109 80.322 246.188 84.144 C 246.276 88.437 246.325 92.721 246.325 97.014 C 246.325 97.014 246.325 97.014 246.325 97.014 L 246.325 155.226 C 246.325 155.226 246.325 155.226 246.325 155.226 C 246.325 159.519 246.276 163.803 246.188 168.096 C 246.109 171.918 245.952 175.74 245.735 179.552 C 245.539 182.932 245.263 186.302 244.889 189.672 C 244.565 192.629 244.132 195.576 243.591 198.504 C 243.109 201.078 242.509 203.623 241.761 206.138 C 241.112 208.358 240.306 210.52 239.361 212.632 C 238.506 214.528 237.492 216.356 236.332 218.075 C 235.23 219.706 233.981 221.219 232.594 222.604 C 231.207 223.98 229.692 225.227 228.069 226.318 C 226.338 227.477 224.509 228.489 222.6 229.344 C 220.495 230.297 218.322 231.093 216.099 231.741 C 213.58 232.478 211.023 233.087 208.446 233.559 C 205.515 234.109 202.554 234.541 199.583 234.865 C 196.219 235.229 192.836 235.514 189.452 235.701 C 185.626 235.917 181.8 236.074 177.973 236.153 C 173.675 236.251 169.376 236.29 165.078 236.29 C 165.078 236.29 165.078 236.29 165.068 236.29 L 90.942 236.29 C 90.932 236.29 90.932 236.29 90.932 236.29 C 86.634 236.29 82.335 236.251 78.037 236.153 C 74.21 236.074 70.384 235.917 66.558 235.701 C 63.174 235.514 59.791 235.229 56.427 234.865 C 53.456 234.541 50.495 234.109 47.564 233.559 C 44.987 233.087 42.43 232.478 39.911 231.741 C 37.688 231.093 35.515 230.297 33.41 229.344 C 31.501 228.489 29.672 227.477 27.941 226.318 C 26.318 225.227 24.803 223.98 23.416 222.604 C 22.029 221.219 20.78 219.706 19.678 218.075 C 18.518 216.356 17.504 214.528 16.649 212.632 C 15.704 210.52 14.898 208.358 14.249 206.138 C 13.501 203.623 12.901 201.078 12.419 198.504 C 11.878 195.576 11.445 192.629 11.121 189.672 C 10.747 186.302 10.472 182.932 10.275 179.552 C 10.058 175.74 9.901 171.918 9.822 168.096 C 9.734 163.803 9.685 159.519 9.685 155.226 C 9.685 155.226 9.685 155.226 9.685 155.226 L 9.685 97.014 C 9.685 97.014 9.685 97.014 9.685 97.014 C 9.685 92.721 9.734 88.437 9.822 84.144 C 9.901 80.322 10.058 76.51 10.275 72.688 C 10.472 69.308 10.747 65.938 11.121 62.578 C 11.445 59.611 11.878 56.664 12.419 53.736 C 12.901 51.162 13.501 48.617 14.249 46.102 C 14.898 43.892 15.704 41.72 16.649 39.608 C 17.504 37.712 18.518 35.894 19.678 34.165 C 20.78 32.544 22.029 31.031 23.416 29.646 C 24.803 28.26 26.318 27.013 27.941 25.922 C 29.672 24.763 31.501 23.751 33.41 22.896 C 35.515 21.953 37.688 21.147 39.911 20.499 C 42.43 19.762 44.987 19.153 47.564 18.681 C 50.495 18.131 53.456 17.699 56.427 17.384 C 59.791 17.011 63.174 16.736 66.558 16.539 C 70.384 16.323 74.21 16.176 78.037 16.087 C 82.335 15.999 86.634 15.95 90.932 15.96 C 90.932 15.96 90.932 15.96 90.942 15.96 L 165.068 15.96 C 165.078 15.96 165.078 15.96 165.078 15.96 Z " fill-rule="evenodd" id="highlight" fill="url(#_lgradient_44)"/></g><g id="acetoneiso"><g opacity="0.2"><path d=" M 123.167 59.125 C 85.679 59.125 55.5 89.304 55.5 126.792 C 55.5 164.279 85.679 194.458 123.167 194.458 C 160.654 194.458 190.833 164.279 190.833 126.792 C 190.833 89.304 160.654 59.125 123.167 59.125 Z  M 123.167 97.792 C 139.183 97.792 152.167 110.775 152.167 126.792 C 152.167 142.808 139.183 155.792 123.167 155.792 C 107.15 155.792 94.167 142.808 94.167 126.792 C 94.167 110.775 107.15 97.792 123.167 97.792 Z " id="Compound Path" fill="rgb(0,0,0)"/></g><path d=" M 123.167 88.125 C 103.146 88.125 86.917 104.355 86.917 124.375 C 86.917 144.395 103.146 160.625 123.167 160.625 C 143.187 160.625 159.417 144.395 159.417 124.375 C 159.417 104.355 143.187 88.125 123.167 88.125 Z  M 123.167 109.875 C 131.175 109.875 137.667 116.367 137.667 124.375 C 137.667 132.383 131.175 138.875 123.167 138.875 C 115.158 138.875 108.667 132.383 108.667 124.375 C 108.667 116.367 115.158 109.875 123.167 109.875 Z " id="Compound Path" fill="rgb(132,132,132)"/><path d=" M 123.167 56.708 C 85.679 56.708 55.5 86.888 55.5 124.375 C 55.5 161.862 85.679 192.042 123.167 192.042 C 160.654 192.042 190.833 161.862 190.833 124.375 C 190.833 86.888 160.654 56.708 123.167 56.708 Z  M 123.167 95.375 C 139.183 95.375 152.167 108.359 152.167 124.375 C 152.167 140.391 139.183 153.375 123.167 153.375 C 107.15 153.375 94.167 140.391 94.167 124.375 C 94.167 108.359 107.15 95.375 123.167 95.375 Z " id="Compound Path" fill="rgb(228,228,228)"/><g opacity="0.2"><path d=" M 123.167 56.708 C 85.679 56.708 55.5 86.888 55.5 124.375 C 55.5 124.649 55.527 124.916 55.542 125.187 C 56.392 88.449 86.218 59.125 123.167 59.125 C 160.113 59.125 189.941 88.444 190.796 125.177 C 190.811 124.91 190.833 124.646 190.833 124.375 C 190.833 86.888 160.654 56.708 123.167 56.708 Z  M 94.289 126.782 C 94.215 127.589 94.174 128.398 94.167 129.208 C 94.179 129.611 94.199 130.014 94.228 130.417 C 94.24 130.01 94.26 129.604 94.289 129.199 C 95.541 144.221 108.092 155.78 123.167 155.792 C 138.234 155.781 150.783 144.233 152.044 129.218 C 152.079 129.694 152.103 130.171 152.115 130.648 C 152.144 130.169 152.161 129.689 152.167 129.208 C 152.159 128.405 152.118 127.601 152.044 126.801 C 150.783 141.816 138.234 153.364 123.167 153.375 C 108.092 153.363 95.541 141.805 94.289 126.782 Z " id="Compound Path" fill="rgb(255,255,255)"/></g><g opacity="0.2"><path d=" M 200.398 157.841 C 199.31 178.353 182.374 194.433 161.833 194.458 C 141.559 194.458 124.728 178.797 123.268 158.576 C 123.216 159.258 123.182 159.941 123.167 160.625 C 123.167 181.98 140.478 199.292 161.833 199.292 C 183.188 199.292 200.5 181.98 200.5 160.625 C 200.499 159.696 200.464 158.767 200.396 157.84 L 200.398 157.841 Z " id="Path" fill="rgb(0,0,0)"/></g><circle vector-effect="non-scaling-stroke" cx="161.83333333333331" cy="158.20833333333331" r="38.66666666666666" id="Ellipse" fill="rgb(216,94,202)"/><path d=" M 142.5 159.823 C 142.5 170.5 151.156 179.156 161.833 179.156 C 172.402 179.156 180.974 170.672 181.148 160.144 C 181.16 160.037 181.166 159.93 181.167 159.823 C 181.167 158.043 179.725 156.6 177.945 156.6 C 176.165 156.6 174.723 158.043 174.723 159.823 C 174.723 166.941 168.952 172.712 161.834 172.712 C 154.716 172.712 148.945 166.941 148.945 159.823 C 148.945 152.705 154.715 146.934 161.834 146.934 L 161.834 153.378 L 174.723 143.711 L 161.836 134.042 L 161.836 140.486 C 151.158 140.486 142.502 149.142 142.502 159.819 L 142.5 159.823 Z " id="Path" fill="rgb(255,255,255)"/></g></svg>
